assets/images/icons/cq-challenge-icon-2.svg

<svg width="53" height="66" viewBox="0 0 53 66" fill="none" xmlns="http://www.w3.org/2000/svg">
<path d="M33.4009 1.00167C34.8725 2.44167 36.3559 3.86833 37.8059 5.32833C38.2175 5.74333 38.6609 6 39.2292 6.14333C40.9842 6.58167 42.7225 7.08 44.4759 7.52667C45.0725 7.67833 45.3809 8.01667 45.5325 8.60833C46.0059 10.4617 46.5075 12.3067 47.0259 14.1483C47.1109 14.45 47.2909 14.76 47.5109 14.985C48.8359 16.34 50.1742 17.6833 51.5342 19.0017C52.0125 19.465 52.1209 19.935 51.9392 20.5717C51.4242 22.3917 50.9475 24.2233 50.4842 26.0583C50.4075 26.3633 50.4092 26.7217 50.4875 27.0267C50.9609 28.88 51.4575 30.7267 51.9692 32.57C52.1309 33.1533 52.0259 33.6 51.5809 34.0317C50.2092 35.3683 48.8592 36.7283 47.5209 38.1C47.3025 38.325 47.1242 38.635 47.0392 38.9383C46.5192 40.8 46.0192 42.6683 45.5375 44.54C45.3975 45.0833 45.1075 45.3933 44.5559 45.5333C43.1692 45.8867 41.7942 46.28 40.3559 46.6733C40.7359 48.095 41.1059 49.475 41.4759 50.855C41.6125 51.365 41.5525 51.8183 41.0525 52.1C40.4909 52.4167 39.8725 52.105 39.6742 51.3933C39.3225 50.1317 38.9959 48.8633 38.6542 47.5983C38.6175 47.465 38.5575 47.3383 38.4875 47.1567C37.2525 48.385 36.0642 49.5767 34.8659 50.7583C33.1559 52.445 33.7292 52.265 31.4359 51.675C30.8192 51.5167 30.2025 51.355 29.4642 51.1633C30.4575 54.8733 31.4225 58.47 32.4109 62.1617C33.5475 60.915 34.6309 59.765 35.6675 58.5733C36.1292 58.0433 36.5992 57.9133 37.2642 58.14C38.7525 58.6483 40.2592 59.1017 41.8692 59.6133C41.5575 58.4283 41.2742 57.35 40.9892 56.2733C40.9359 56.0717 40.8692 55.875 40.8225 55.6717C40.6942 55.1 40.9425 54.6267 41.4409 54.4817C41.9809 54.3233 42.4459 54.5917 42.6325 55.1917C42.7559 55.5883 42.8492 55.995 42.9559 56.3967C43.3259 57.7833 43.7275 59.1617 44.0459 60.56C44.1259 60.9117 44.0592 61.4583 43.8325 61.675C43.6025 61.8917 43.0525 61.9367 42.7059 61.835C40.9492 61.325 39.2109 60.7517 37.4742 60.1767C37.0692 60.0417 36.8109 60.095 36.5159 60.43C35.3875 61.7117 34.2275 62.965 33.0709 64.2217C32.8209 64.495 32.5409 64.7417 32.2742 65C32.0659 65 31.8575 65 31.6492 65C31.4075 64.6333 31.0542 64.2967 30.9442 63.8933C29.7842 59.67 28.6475 55.4383 27.5475 51.1983C27.3942 50.61 27.0642 50.3867 26.5625 50.4017C26.0675 50.415 25.6659 50.5567 25.5009 51.1967C24.4042 55.4383 23.2659 59.6683 22.1059 63.8917C21.9959 64.295 21.6409 64.6317 21.4009 65C21.1925 65 20.9842 65 20.7759 65C19.5425 63.6783 18.2409 62.4133 17.0992 61.015C16.4075 60.1667 15.7992 60.015 14.7975 60.415C13.3725 60.9833 11.8742 61.3717 10.4092 61.8417C9.97754 61.98 9.55421 62.07 9.18254 61.7117C8.81421 61.3567 8.87421 60.9417 8.99421 60.495C10.1925 56.0367 11.3825 51.5767 12.5742 47.1167C12.6059 46.9983 12.6309 46.8767 12.6792 46.6783C11.5475 46.37 10.4475 45.9867 9.31588 45.7883C8.15588 45.585 7.56754 45.0417 7.33254 43.8583C7.00921 42.23 6.50588 40.6367 6.04088 39.04C5.93588 38.6817 5.72088 38.3217 5.46421 38.0483C4.69588 37.2283 3.87754 36.455 3.08588 35.655C2.56421 35.1283 2.51921 34.595 2.93588 34.1817C3.35754 33.7633 3.87921 33.8117 4.41254 34.3383C5.33088 35.2467 6.25921 36.145 7.14588 37.0833C7.41754 37.3717 7.64088 37.7583 7.75088 38.1383C8.24088 39.8367 8.69921 41.5433 9.12921 43.2583C9.23421 43.6783 9.41921 43.8767 9.83754 43.9817C11.5709 44.4217 13.2992 44.88 15.0192 45.3717C15.3809 45.475 15.7525 45.6817 16.0209 45.9433C17.3109 47.1867 18.5775 48.4533 19.8242 49.7383C20.1292 50.0533 20.3942 50.1067 20.8009 49.9917C22.5425 49.5017 24.2892 49.03 26.0425 48.5867C26.3675 48.5033 26.7509 48.5067 27.0775 48.5883C28.8309 49.0317 30.5792 49.5 32.3209 49.9867C32.7042 50.0933 32.9559 50.05 33.2459 49.75C34.4909 48.4633 35.7559 47.1933 37.0442 45.9483C37.3275 45.675 37.7175 45.455 38.0959 45.345C39.8325 44.8417 41.5809 44.375 43.3325 43.9233C43.6892 43.8317 43.8342 43.6633 43.9242 43.315C44.3609 41.6017 44.8059 39.8917 45.3009 38.195C45.4275 37.7583 45.6825 37.315 45.9959 36.985C47.2025 35.7183 48.4459 34.4867 49.7009 33.2667C50.0142 32.9617 50.0692 32.695 49.9509 32.28C49.4792 30.62 49.0242 28.9533 48.6209 27.2767C48.5092 26.8167 48.5009 26.285 48.6109 25.825C49.0225 24.1067 49.5192 22.4083 49.9409 20.6933C49.9992 20.4533 49.9009 20.07 49.7309 19.8933C48.5042 18.6183 47.2209 17.395 45.9975 16.1167C45.6825 15.7883 45.4225 15.3483 45.2942 14.9133C44.7992 13.2383 44.3525 11.55 43.9259 9.85667C43.8209 9.43833 43.6375 9.23667 43.2192 9.13C41.4859 8.69 39.7575 8.23333 38.0375 7.745C37.6759 7.64167 37.3059 7.43167 37.0359 7.17167C35.7609 5.94333 34.5042 4.695 33.2792 3.41833C32.9375 3.06333 32.6425 3.01333 32.1925 3.14C30.4925 3.62167 28.7859 4.08167 27.0709 4.51C26.7075 4.6 26.2825 4.59667 25.9192 4.505C24.1842 4.07333 22.4575 3.60667 20.7342 3.12667C20.3492 3.02 20.1009 3.06667 19.8109 3.36667C18.5792 4.63833 17.3309 5.895 16.0559 7.12167C15.7575 7.41 15.3542 7.64833 14.9575 7.765C13.2809 8.255 11.5942 8.71 9.89921 9.13167C9.40421 9.255 9.18921 9.48833 9.07088 9.975C8.66421 11.63 8.23088 13.28 7.75254 14.9167C7.62588 15.3533 7.37254 15.8 7.05921 16.1283C5.83754 17.41 4.57588 18.6533 3.31088 19.8917C3.03421 20.1617 2.97921 20.4067 3.08254 20.7733C3.55921 22.475 4.02921 24.18 4.45254 25.895C4.55588 26.3167 4.55921 26.805 4.46254 27.2283C4.19088 28.4233 3.84754 29.6033 3.52421 30.7867C3.33088 31.495 2.89254 31.7983 2.31421 31.645C1.75588 31.4967 1.53754 31.0017 1.72088 30.2867C1.81421 29.9233 1.87754 29.5483 2.01754 29.205C2.74754 27.4233 2.65921 25.6717 2.00588 23.88C1.60921 22.79 1.38754 21.6367 1.06921 20.5167C0.910878 19.9617 1.01921 19.525 1.44588 19.1083C2.81754 17.77 4.16921 16.4117 5.50421 15.0367C5.73588 14.7983 5.92254 14.4667 6.01254 14.145C6.53088 12.3033 7.02754 10.4567 7.50088 8.60167C7.64588 8.03 7.94754 7.71667 8.52088 7.57C10.3342 7.10667 12.1425 6.625 13.9409 6.10833C14.3375 5.99333 14.7442 5.765 15.0409 5.47833C16.3459 4.22167 17.6092 2.92167 18.8942 1.64333C19.1275 1.41167 19.3959 1.21333 19.6475 1C19.8559 1 20.0642 1 20.2725 1C20.3375 1.04167 20.3992 1.10333 20.4709 1.12333C22.3942 1.64 24.3192 2.15333 26.2442 2.66333C26.3609 2.695 26.4975 2.73667 26.6059 2.70667C28.6625 2.14333 30.7175 1.57167 32.7725 1C32.9842 1.00167 33.1925 1.00167 33.4009 1.00167ZM20.6392 62.165C21.6309 58.4633 22.5892 54.8833 23.5809 51.1833C22.4625 51.48 21.4609 51.72 20.4742 52.015C19.9025 52.1867 19.4859 52.0533 19.0759 51.635C17.7509 50.2817 16.4025 48.9517 15.0609 47.615C14.9109 47.465 14.7475 47.33 14.5175 47.1233C13.3909 51.335 12.2942 55.4283 11.1692 59.6317C12.8009 59.1083 14.2925 58.66 15.7625 58.1483C16.4559 57.9067 16.9375 58.06 17.4109 58.6033C18.4325 59.78 19.5009 60.915 20.6392 62.165Z" fill="#F89A28" stroke="#F89A28" stroke-width="0.5"/>
<path d="M9.74559 20.7749C11.3939 20.7749 12.9539 20.7749 14.5139 20.7749C16.0973 20.7749 17.6806 20.7915 19.2639 20.7665C19.9089 20.7565 20.4123 20.9115 20.6523 21.6799C21.9439 20.6265 23.2189 19.6632 24.4056 18.5999C25.5106 17.6115 25.8789 16.2715 25.8956 14.8182C25.9006 14.3615 25.8739 13.8915 25.9773 13.4532C26.2423 12.3299 27.2439 11.5415 28.3639 11.4982C29.5823 11.4515 30.6339 12.1332 30.9973 13.2965C31.7923 15.8399 32.0973 18.4199 31.4489 21.0515C31.4289 21.1315 31.4239 21.2132 31.3973 21.3915C31.6423 21.3915 31.8589 21.3915 32.0756 21.3915C33.6789 21.3915 35.2839 21.3865 36.8873 21.3932C38.1673 21.3999 39.1639 21.9215 39.6789 23.1232C40.1789 24.2882 39.9473 25.3549 39.0856 26.2965C38.9839 26.4082 38.9323 26.6715 38.9906 26.8082C39.5089 28.0282 39.3373 29.1149 38.4623 30.1132C38.3523 30.2399 38.3073 30.5282 38.3706 30.6849C38.8839 31.9415 38.6739 33.0349 37.7473 34.0232C37.6256 34.1515 37.5839 34.4665 37.6489 34.6415C38.3906 36.6732 37.0739 38.6132 34.9039 38.6215C31.5506 38.6349 28.1973 38.6215 24.8423 38.6282C24.0639 38.6299 23.3939 38.3615 22.7323 37.9682C22.1206 37.6032 21.4439 37.3482 20.6123 36.9582C20.6123 37.4699 20.6239 37.7682 20.6106 38.0632C20.5756 38.7949 20.2439 39.1232 19.5123 39.1282C17.9289 39.1365 16.3456 39.1315 14.7623 39.1315C14.5606 39.1315 14.3589 39.1315 14.1556 39.1315C14.1306 39.1765 14.1056 39.2215 14.0806 39.2682C14.6889 39.7815 15.2756 40.3215 15.9089 40.8015C26.4173 48.7499 41.9856 42.5082 44.0239 29.4915C45.0373 23.0132 43.0023 17.5515 38.1556 13.1365C38.0639 13.0532 37.9639 12.9765 37.8756 12.8865C37.4539 12.4549 37.4156 11.9515 37.7706 11.5499C38.1173 11.1565 38.6839 11.0882 39.1023 11.4982C40.1123 12.4865 41.1773 13.4432 42.0406 14.5515C51.0989 26.1765 44.4206 43.3765 29.8923 45.8965C19.2256 47.7465 9.09059 40.6582 7.17392 30.0065C5.20726 19.0615 12.8573 8.56987 23.8706 7.10487C27.5739 6.61154 31.1289 7.11821 34.5456 8.62654C34.9756 8.81654 35.3739 9.07821 35.2739 9.57987C35.2106 9.89654 34.9589 10.2749 34.6823 10.4182C34.4473 10.5399 34.0289 10.4382 33.7439 10.3132C31.5606 9.35487 29.2789 8.87487 26.9023 8.79154C19.5723 8.53487 12.4056 13.3682 9.90726 20.2649C9.85892 20.3982 9.82059 20.5349 9.74559 20.7749ZM20.6106 35.2315C21.8973 35.3882 23.0039 35.8132 24.0139 36.5249C24.2606 36.6982 24.6423 36.7365 24.9639 36.7415C26.6089 36.7615 28.2556 36.7515 29.9006 36.7515C31.5673 36.7515 33.2339 36.7582 34.9006 36.7482C35.5473 36.7432 35.9823 36.3399 35.9906 35.7849C35.9989 35.2382 35.5639 34.8232 34.9273 34.7865C34.6773 34.7715 34.4273 34.7882 34.1773 34.7799C33.5123 34.7549 33.1439 34.4332 33.1323 33.8749C33.1206 33.2899 33.5039 32.9332 34.1939 32.9115C34.7556 32.8949 35.3206 32.9249 35.8806 32.8865C36.4039 32.8515 36.7673 32.4265 36.7673 31.9315C36.7656 31.4382 36.4006 31.0282 35.8756 30.9799C35.5039 30.9449 35.1256 30.9765 34.7523 30.9515C34.1123 30.9099 33.7456 30.5349 33.7673 29.9749C33.7889 29.4415 34.1456 29.1132 34.7706 29.0899C35.3323 29.0699 35.8973 29.1065 36.4573 29.0665C37.0323 29.0265 37.4006 28.6115 37.3989 28.0915C37.3956 27.5432 36.9956 27.1482 36.3889 27.1265C35.8889 27.1082 35.3889 27.1282 34.8889 27.1199C34.1673 27.1082 33.7523 26.7449 33.7673 26.1532C33.7806 25.5832 34.1773 25.2549 34.8789 25.2482C35.5873 25.2415 36.2956 25.2599 37.0039 25.2399C37.6273 25.2215 38.0189 24.8465 38.0389 24.2965C38.0589 23.7165 37.6689 23.3199 37.0189 23.2699C36.8539 23.2565 36.6856 23.2649 36.5189 23.2649C34.4356 23.2649 32.3523 23.2699 30.2689 23.2615C29.3156 23.2582 28.9306 22.7282 29.2573 21.8349C30.2073 19.2365 30.0423 16.6449 29.2723 14.0482C29.1356 13.5882 28.8623 13.3015 28.3673 13.3899C27.9039 13.4715 27.7356 13.8165 27.7589 14.2699C27.7689 14.4782 27.7673 14.6865 27.7656 14.8949C27.7439 17.0982 26.9389 18.9482 25.2573 20.3932C24.7989 20.7865 24.3156 21.1499 23.8489 21.5315C22.8806 22.3215 21.9006 23.0949 20.9623 23.9182C20.7623 24.0932 20.6323 24.4482 20.6273 24.7249C20.5956 26.2865 20.6123 27.8499 20.6123 29.4115C20.6106 31.3282 20.6106 33.2432 20.6106 35.2315ZM9.17726 22.6732C8.19226 27.6549 8.99392 32.2315 11.7589 36.4582C12.1406 37.0399 12.5306 37.3099 13.2523 37.2749C14.5823 37.2099 15.9173 37.2565 17.2506 37.2565C17.7239 37.2565 18.1973 37.2565 18.6773 37.2565C18.6773 32.3532 18.6773 27.5182 18.6773 22.6749C15.4956 22.6732 12.3739 22.6732 9.17726 22.6732Z" fill="#F89A28" stroke="#F89A28" stroke-width="0.5"/>
</svg>

<svg xmlns="http://www.w3.org/2000/svg" width="53" height="66" fill="none"><path fill="#F89A28" stroke="#F89A28" stroke-width=".5" d="M33.4 1.002c1.473 1.44 2.956 2.866 4.406 4.326.412.415.855.672 1.423.815 1.755.439 3.493.937 5.247 1.384.596.151.905.49 1.056 1.081.474 1.854.976 3.699 1.494 5.54.085.302.265.612.485.837a212.801 212.801 0 0 0 4.023 4.017c.479.463.587.933.405 1.57-.515 1.82-.992 3.651-1.455 5.486-.077.305-.075.664.003.969.474 1.853.97 3.7 1.482 5.543.162.583.057 1.03-.388 1.462a227.354 227.354 0 0 0-4.06 4.068 2.044 2.044 0 0 0-.482.838c-.52 1.862-1.02 3.73-1.502 5.602-.14.543-.43.853-.981.993-1.387.354-2.762.747-4.2 1.14l1.12 4.182c.136.51.077.963-.423 1.245-.562.317-1.18.005-1.379-.707-.352-1.261-.678-2.53-1.02-3.795-.037-.133-.097-.26-.167-.441-1.235 1.228-2.423 2.42-3.621 3.601-1.71 1.687-1.137 1.507-3.43.917-.617-.158-1.233-.32-1.972-.512.994 3.71 1.959 7.307 2.947 10.999 1.136-1.247 2.22-2.397 3.256-3.589.462-.53.932-.66 1.597-.433 1.488.508 2.995.962 4.605 1.473-.312-1.185-.595-2.263-.88-3.34-.053-.201-.12-.398-.166-.601-.129-.572.12-1.045.618-1.19.54-.159 1.005.11 1.191.71.124.396.217.803.324 1.205.37 1.386.771 2.765 1.09 4.163.08.352.013.898-.213 1.115-.23.217-.78.262-1.127.16-1.757-.51-3.495-1.083-5.232-1.658-.405-.135-.663-.082-.958.253-1.128 1.282-2.288 2.535-3.445 3.792-.25.273-.53.52-.797.778h-.625c-.242-.367-.595-.703-.705-1.107a924.37 924.37 0 0 1-3.396-12.695c-.154-.588-.484-.811-.985-.796-.495.013-.897.155-1.062.795a874.126 874.126 0 0 1-3.395 12.695c-.11.403-.465.74-.705 1.108h-.625c-1.233-1.322-2.535-2.587-3.677-3.985-.692-.848-1.3-1-2.302-.6-1.425.568-2.923.957-4.388 1.427-.431.138-.855.228-1.226-.13-.369-.355-.309-.77-.189-1.217 1.199-4.458 2.389-8.918 3.58-13.378.032-.119.057-.24.105-.439-1.132-.308-2.232-.691-3.363-.89-1.16-.203-1.748-.746-1.983-1.93-.324-1.628-.827-3.221-1.292-4.818a2.557 2.557 0 0 0-.577-.992c-.768-.82-1.586-1.593-2.378-2.393-.522-.527-.567-1.06-.15-1.473.422-.419.943-.37 1.477.156.918.909 1.846 1.807 2.733 2.745.272.289.495.675.605 1.055.49 1.699.948 3.405 1.378 5.12.105.42.29.619.709.724 1.733.44 3.461.898 5.181 1.39.362.103.733.31 1.002.571 1.29 1.244 2.556 2.51 3.803 3.795.305.315.57.369.977.254a203.93 203.93 0 0 1 5.242-1.405c.325-.084.708-.08 1.035.001 1.753.444 3.501.912 5.243 1.399.383.106.635.063.925-.237a160.177 160.177 0 0 1 3.798-3.802 2.629 2.629 0 0 1 1.052-.603 182.68 182.68 0 0 1 5.237-1.422c.356-.091.501-.26.591-.608.437-1.713.882-3.423 1.377-5.12.127-.437.381-.88.695-1.21a136.586 136.586 0 0 1 3.705-3.718c.313-.305.368-.572.25-.987-.472-1.66-.927-3.327-1.33-5.003a3.21 3.21 0 0 1-.01-1.452c.412-1.718.908-3.417 1.33-5.132.058-.24-.04-.623-.21-.8-1.227-1.275-2.51-2.498-3.733-3.776a3.053 3.053 0 0 1-.704-1.204 129.188 129.188 0 0 1-1.368-5.056c-.105-.419-.288-.62-.707-.727-1.733-.44-3.462-.897-5.181-1.385a2.48 2.48 0 0 1-1.002-.573 135.21 135.21 0 0 1-3.757-3.754c-.342-.355-.637-.405-1.087-.278-1.7.482-3.406.942-5.121 1.37-.364.09-.789.087-1.152-.005a193.008 193.008 0 0 1-5.185-1.378c-.385-.107-.633-.06-.923.24a150.58 150.58 0 0 1-3.755 3.755 2.768 2.768 0 0 1-1.099.643c-1.676.49-3.363.945-5.058 1.367-.495.123-.71.356-.828.843a117.9 117.9 0 0 1-1.318 4.942 3.05 3.05 0 0 1-.694 1.211 153.536 153.536 0 0 1-3.748 3.764c-.277.27-.332.515-.228.881.476 1.702.946 3.407 1.37 5.122a3 3 0 0 1 .01 1.333c-.272 1.195-.615 2.375-.939 3.559-.193.708-.631 1.011-1.21.858-.558-.148-.776-.643-.593-1.358.093-.364.157-.739.297-1.082.73-1.782.641-3.533-.012-5.325-.397-1.09-.618-2.243-.937-3.363-.158-.555-.05-.992.377-1.409a212.373 212.373 0 0 0 4.058-4.071c.232-.239.419-.57.509-.892A234.063 234.063 0 0 0 7.5 8.602c.145-.572.447-.885 1.02-1.032 1.813-.463 3.621-.945 5.42-1.462a2.734 2.734 0 0 0 1.1-.63c1.305-1.256 2.568-2.556 3.853-3.835.234-.231.502-.43.754-.643h.625c.064.042.126.103.198.123 1.923.517 3.848 1.03 5.773 1.54.117.032.253.074.362.044 2.056-.564 4.111-1.135 6.166-1.707.212.002.42.002.629.002ZM20.64 62.165c.99-3.702 1.95-7.282 2.94-10.982-1.117.297-2.12.537-3.106.832-.572.172-.988.038-1.398-.38-1.325-1.353-2.674-2.683-4.015-4.02-.15-.15-.313-.285-.543-.492l-3.349 12.509c1.632-.524 3.123-.972 4.593-1.484.694-.241 1.175-.088 1.649.455 1.021 1.177 2.09 2.312 3.228 3.562Z"/><path fill="#F89A28" stroke="#F89A28" stroke-width=".5" d="M9.746 20.775h4.768c1.583 0 3.167.017 4.75-.008.645-.01 1.148.145 1.388.913 1.292-1.053 2.567-2.017 3.754-3.08 1.105-.989 1.473-2.329 1.49-3.782.005-.457-.022-.926.081-1.365a2.562 2.562 0 0 1 2.387-1.955c1.218-.046 2.27.635 2.633 1.799.795 2.543 1.1 5.123.452 7.755-.02.08-.025.161-.052.34h.679c1.603 0 3.208-.005 4.811.001 1.28.007 2.277.529 2.792 1.73.5 1.165.268 2.232-.593 3.174-.102.111-.154.375-.095.511.518 1.22.346 2.307-.529 3.305-.11.127-.155.415-.091.572.513 1.257.303 2.35-.624 3.338-.121.128-.163.444-.098.618.742 2.032-.575 3.972-2.745 3.98-3.353.014-6.707 0-10.062.007-.778.002-1.448-.267-2.11-.66-.611-.365-1.288-.62-2.12-1.01 0 .512.012.81-.001 1.105-.035.732-.367 1.06-1.099 1.065-1.583.008-3.166.004-4.75.004h-.606a9.91 9.91 0 0 0-.075.136c.608.514 1.195 1.053 1.828 1.533 10.508 7.949 26.077 1.707 28.115-11.31 1.013-6.478-1.022-11.94-5.868-16.354-.092-.084-.192-.16-.28-.25-.422-.432-.46-.936-.105-1.337.346-.394.913-.462 1.331-.052 1.01.989 2.075 1.945 2.939 3.054 9.058 11.625 2.38 28.825-12.149 31.345-10.666 1.85-20.801-5.239-22.718-15.89C5.207 19.06 12.857 8.57 23.87 7.104c3.703-.493 7.258.013 10.675 1.522.43.19.828.451.728.953-.063.317-.315.695-.592.838-.235.122-.653.02-.938-.105-2.183-.958-4.465-1.438-6.842-1.521-7.33-.257-14.496 4.576-16.995 11.473-.048.133-.086.27-.161.51ZM20.61 35.23c1.286.157 2.393.582 3.403 1.294.247.173.628.212.95.217 1.645.02 3.292.01 4.937.01 1.666 0 3.333.006 5-.004.646-.005 1.081-.408 1.09-.963.008-.547-.427-.962-1.064-.998-.25-.015-.5.001-.75-.007-.665-.025-1.033-.347-1.045-.905-.011-.585.372-.942 1.062-.964.562-.016 1.127.014 1.687-.025a.943.943 0 0 0 .886-.955.955.955 0 0 0-.891-.951c-.372-.035-.75-.003-1.124-.029-.64-.041-1.006-.416-.985-.976.022-.534.379-.862 1.004-.885.561-.02 1.126.017 1.686-.023.575-.04.944-.456.942-.976-.003-.548-.403-.943-1.01-.965-.5-.018-1 .002-1.5-.006-.722-.012-1.137-.375-1.122-.967.014-.57.41-.898 1.112-.905.708-.007 1.417.012 2.125-.008.623-.018 1.015-.393 1.035-.943.02-.58-.37-.977-1.02-1.027-.165-.014-.333-.005-.5-.005-2.083 0-4.167.005-6.25-.003-.953-.004-1.338-.534-1.012-1.427.95-2.599.785-5.19.015-7.787-.136-.46-.41-.746-.905-.658-.463.082-.631.426-.608.88.01.208.008.417.007.625-.022 2.203-.827 4.053-2.509 5.498-.458.393-.941.757-1.408 1.139-.968.79-1.948 1.563-2.887 2.386-.2.175-.33.53-.335.807-.031 1.561-.015 3.125-.015 4.686l-.001 5.82ZM9.177 22.673c-.985 4.982-.183 9.558 2.582 13.785.382.582.772.852 1.493.817 1.33-.065 2.665-.018 3.999-.018h1.426V22.675c-3.181-.002-6.303-.002-9.5-.002Z"/></svg>
